dist/assets/img/catalog-icon-02.svg

<svg width="20" height="32" fill="none" xmlns="http://www.w3.org/2000/svg"><path fill-rule="evenodd" clip-rule="evenodd" d="M20 11h-2v-.2c-.1-.2-1.3-5.7-2-8.1C15.1 0 12.2 0 11.2 0H8.8C7.8 0 4.9 0 4 2.7c-.8 2.4-2 7.9-2 8.1v.2H0v5h6.4C4.9 17.4 4 19.5 4 22s1.2 4.1 2.5 5H3v5h14v-5h-3.5c1.3-.9 2.5-2.5 2.5-5s-.9-4.6-2.4-6H20v-5ZM10 1h1.2c1.4 0 3.2.2 3.8 2 .7 2.4 2 8 2 8h-7V1ZM5 3c.6-1.8 2.3-2 3.8-2H10v10H3s1.3-5.6 2-8Zm11 25v3H4v-3h12Zm-1-6c0 4.3-4 5-4 5H9s-4-.8-4-5c0-3.1 1.4-5.1 3-6h4c1.6.9 3 2.9 3 6Zm4-7H1v-3h18v3Z" fill="#000"/></svg>

<svg width="20" height="32" viewBox="0 0 20 32" fill="none" xmlns="http://www.w3.org/2000/svg">
<path fill-rule="evenodd" clip-rule="evenodd" d="M20 11H18V10.8C17.9 10.6 16.7 5.1 16 2.7C15.1 0 12.2 0 11.2 0H8.8C7.8 0 4.9 0 4 2.7C3.2 5.1 2 10.6 2 10.8V11H0V16H6.4C4.9 17.4 4 19.5 4 22C4 24.5 5.2 26.1 6.5 27H3V32H17V27H13.5C14.8 26.1 16 24.5 16 22C16 19.5 15.1 17.4 13.6 16H20V11ZM10 1H11.2C12.6 1 14.4 1.2 15 3C15.7 5.4 17 11 17 11H10V1ZM5 3C5.6 1.2 7.3 1 8.8 1H10V11H3C3 11 4.3 5.4 5 3ZM16 28V31H4V28H16ZM15 22C15 26.3 11 27 11 27H9C9 27 5 26.2 5 22C5 18.9 6.4 16.9 8 16H12C13.6 16.9 15 18.9 15 22ZM19 15H1V12H19V15Z" fill="black"/>
</svg>
